packages/icons/src/cloud-formation-create.svg

<svg fill="none" viewBox="0 0 33 33" xmlns="http://www.w3.org/2000/svg"><path clip-rule="evenodd" d="m4.29977 16.894c0-6.6053 5.35467-11.95996 11.96003-11.95996 6.6053 0 11.96 5.35466 11.96 11.95996 0 .2872.2328.52.52.52s.52-.2328.52-.52c0-7.17966-5.8203-12.99996-13-12.99996-7.17974 0-13.00003 5.8203-13.00003 12.99996-.00001 7.1797 5.8203 13 13.00003 13 .2872 0 .52-.2328.52-.52 0-.2871-.2328-.52-.52-.52-6.60536 0-11.96003-5.3546-11.96003-11.96zm6.50423-.4856c0-.2872.2328-.52.52-.52h3.9295v-3.93c0-.2872.2328-.52.52-.52s.52.2328.52.52v3.93h3.9307c.2872 0 .52.2328.52.52s-.2328.52-.52.52h-3.9307v3.9302c0 .2872-.2328.52-.52.52s-.52-.2328-.52-.52v-3.9302h-3.9295c-.2872 0-.52-.2328-.52-.52z" fill="#0278d5" fill-rule="evenodd"/><path d="m22.0127 28.786.0941.1069 4.7553 1.3479.0215-.8355-3.3304-.8358-.1629-.0588z" fill="#b7ca9d"/><path d="m31.661 28.7859-4.8565 1.621-.0145-1.0018 3.3304-.8357.1452-.1634z" fill="#b7ca9d"/><path d="m26.79 23.0593 3.3304.7762 1.4647-.0695.0759-.1468-4.6402-1.6702z" fill="#3c4929"/><path d="m23.5532 28.5693-1.5406.2165-.0429-.16v-4.8382l.0429-.1685 1.392.1036.1486.1129z" fill="#759c3e"/><path d="m26.8836 23.0592-3.3304.7762-1.5405-.2163.0581-.0911 4.7913-1.3637z" fill="#3c4929"/><path d="m26.8299 19.4614-5.5311 2.7918.0027 7.9005 5.5284 2.7903.0823-.125v-13.1953zm-1.6174 10.285-3.2002-.9604v-5.1667l3.2002-.9601zm4.9075-1.1769 1.5406.2165.0863-.1528v-4.8671l-.0863-.1468-1.5406.2165z" fill="#4b612c"/><path d="m26.8301 32.944 5.5417-2.7901.0026-7.9004-5.5443-2.7921zm1.6304-10.2848 3.2003.9601v5.1667l-3.2003.9604z" fill="#759c3e"/></svg>

<svg viewBox="0 0 33 33" fill="none" xmlns="http://www.w3.org/2000/svg">
<path fill-rule="evenodd" clip-rule="evenodd" d="M4.29977 16.894C4.29977 10.2887 9.65444 4.93404 16.2598 4.93404C22.8651 4.93404 28.2198 10.2887 28.2198 16.894C28.2198 17.1812 28.4526 17.414 28.7398 17.414C29.027 17.414 29.2598 17.1812 29.2598 16.894C29.2598 9.71434 23.4395 3.89404 16.2598 3.89404C9.08006 3.89404 3.25977 9.71434 3.25977 16.894C3.25976 24.0737 9.08007 29.894 16.2598 29.894C16.547 29.894 16.7798 29.6612 16.7798 29.374C16.7798 29.0869 16.547 28.854 16.2598 28.854C9.65444 28.854 4.29977 23.4994 4.29977 16.894ZM10.804 16.4084C10.804 16.1212 11.0368 15.8884 11.324 15.8884L15.2535 15.8884L15.2535 11.9584C15.2535 11.6712 15.4863 11.4384 15.7735 11.4384C16.0607 11.4384 16.2935 11.6712 16.2935 11.9584L16.2935 15.8884L20.2242 15.8884C20.5114 15.8884 20.7442 16.1212 20.7442 16.4084C20.7442 16.6956 20.5114 16.9284 20.2242 16.9284L16.2935 16.9284L16.2935 20.8586C16.2935 21.1458 16.0607 21.3786 15.7735 21.3786C15.4863 21.3786 15.2535 21.1458 15.2535 20.8586L15.2535 16.9284L11.324 16.9284C11.0368 16.9284 10.804 16.6956 10.804 16.4084Z" fill="#0278D5"/>
<path d="M22.0127 28.786L22.1068 28.8929L26.8621 30.2408L26.8836 29.4053L23.5532 28.5695L23.3903 28.5107L22.0127 28.786Z" fill="#B7CA9D"/>
<path d="M31.661 28.7859L26.8045 30.4069L26.79 29.4051L30.1204 28.5694L30.2656 28.406L31.661 28.7859Z" fill="#B7CA9D"/>
<path d="M26.79 23.0593L30.1204 23.8355L31.5851 23.766L31.661 23.6192L27.0208 21.949L26.79 23.0593Z" fill="#3C4929"/>
<path d="M23.5532 28.5693L22.0126 28.7858L21.9697 28.6258V23.7876L22.0126 23.6191L23.4046 23.7227L23.5532 23.8356V28.5693Z" fill="#759C3E"/>
<path d="M26.8836 23.0592L23.5532 23.8354L22.0127 23.6191L22.0708 23.528L26.8621 22.1643L26.8836 23.0592Z" fill="#3C4929"/>
<path d="M26.8299 19.4614L21.2988 22.2532L21.3015 30.1537L26.8299 32.944L26.9122 32.819V19.6237L26.8299 19.4614ZM25.2125 29.7464L22.0123 28.786V23.6193L25.2125 22.6592V29.7464ZM30.12 28.5695L31.6606 28.786L31.7469 28.6332V23.7661L31.6606 23.6193L30.12 23.8358V28.5695Z" fill="#4B612C"/>
<path d="M26.8301 32.944L32.3718 30.1539L32.3744 22.2535L26.8301 19.4614V32.944ZM28.4605 22.6592L31.6608 23.6193V28.786L28.4605 29.7464V22.6592Z" fill="#759C3E"/>
</svg>
